static/img/mobile/progress-bars-determinate-dark.svg

<svg fill="none" height="122" viewBox="0 0 960 122" width="960" xmlns="http://www.w3.org/2000/svg" xmlns:xlink="http://www.w3.org/1999/xlink"><clipPath id="a"><path d="m0 0h960v122h-960z"/></clipPath><clipPath id="b"><rect height="16" rx="2" width="200" x="380" y="40"/></clipPath><g clip-path="url(#a)"><path d="m0 0h960v122h-960z" fill="#252a2e"/><g clip-path="url(#b)"><rect height="15" rx="1.5" stroke="#6a6e79" width="199" x="380.5" y="40.5"/></g><path d="m384.717 71.8223c-.684 0-1.213.2578-1.588.7734-.375.5117-.563 1.2266-.563 2.1445 0 1.9102.717 2.8653 2.151 2.8653.601 0 1.33-.1504 2.185-.4512v1.5234c-.703.293-1.488.4395-2.355.4395-1.246 0-2.199-.377-2.859-1.1309-.661-.7578-.991-1.8437-.991-3.2578 0-.8906.162-1.6699.487-2.3379.324-.6718.789-1.1855 1.394-1.541.61-.3594 1.322-.5391 2.139-.5391.832 0 1.668.2012 2.508.6036l-.586 1.4765c-.321-.1523-.643-.2851-.967-.3984s-.643-.1699-.955-.1699zm5.797 3.8906c0 .6484.105 1.1387.316 1.4707.215.332.563.498 1.043.498.477 0 .818-.164 1.025-.4921.211-.3321.317-.8243.317-1.4766 0-.6484-.106-1.1348-.317-1.459-.21-.3242-.556-.4863-1.037-.4863-.476 0-.82.1621-1.031.4863-.211.3203-.316.8066-.316 1.459zm4.529 0c0 1.0664-.281 1.9004-.844 2.5019-.562.6016-1.345.9024-2.349.9024-.629 0-1.184-.1367-1.664-.4102-.481-.2773-.85-.6738-1.108-1.1894s-.387-1.1172-.387-1.8047c0-1.0703.28-1.9024.838-2.4961.559-.5938 1.344-.8906 2.356-.8906.629 0 1.183.1367 1.664.4101.48.2735.849.666 1.107 1.1778.258.5117.387 1.1113.387 1.7988zm7.842 3.2871h-1.787v-3.8262c0-.4726-.08-.8261-.241-1.0605-.156-.2383-.404-.3574-.744-.3574-.457 0-.789.1679-.996.5039-.207.3359-.31.8886-.31 1.6582v3.082h-1.787v-6.5508h1.365l.24.8379h.1c.175-.3008.429-.5351.761-.7031.332-.1719.713-.2578 1.143-.2578.98 0 1.644.3203 1.992.9609h.158c.176-.3047.434-.541.774-.709.343-.1679.73-.2519 1.16-.2519.742 0 1.303.1914 1.682.5742.382.3789.574.9883.574 1.8281v4.2715h-1.793v-3.8262c0-.4726-.08-.8261-.24-1.0605-.157-.2383-.405-.3574-.745-.3574-.437 0-.765.1562-.984.4687-.215.3125-.322.8086-.322 1.4883zm10.021.1172c-.769 0-1.373-.2793-1.81-.8379h-.094c.062.5469.094.8633.094.9492v2.6543h-1.787v-9.4336h1.453l.252.8496h.082c.418-.6484 1.037-.9726 1.857-.9726.774 0 1.379.2988 1.817.8965.437.5976.656 1.4277.656 2.4902 0 .6992-.104 1.3066-.311 1.8223-.203.5156-.494.9082-.873 1.1777s-.824.4043-1.336.4043zm-.527-5.3613c-.441 0-.764.1367-.967.4101-.203.2695-.308.7168-.316 1.3418v.1934c0 .7031.103 1.207.31 1.5117.211.3047.543.457.996.457.801 0 1.202-.6601 1.202-1.9804 0-.6446-.1-1.127-.299-1.4473-.196-.3242-.504-.4863-.926-.4863zm6.81 5.2441h-1.787v-9.1172h1.787zm5.094-5.4023c-.379 0-.676.1211-.89.3632-.215.2383-.338.5782-.37 1.0196h2.508c-.008-.4414-.123-.7813-.345-1.0196-.223-.2421-.524-.3632-.903-.3632zm.252 5.5195c-1.055 0-1.879-.291-2.473-.8731-.593-.582-.89-1.4062-.89-2.4726 0-1.0977.273-1.9453.82-2.543.551-.6015 1.311-.9023 2.279-.9023.926 0 1.647.2636 2.163.791.515.5273.773 1.2558.773 2.1855v.8672h-4.225c.02.5078.17.9043.452 1.1895.281.2851.675.4277 1.183.4277.395 0 .768-.041 1.119-.123.352-.0821.719-.2129 1.102-.3926v1.3828c-.313.1562-.647.2715-1.002.3457-.356.0781-.789.1172-1.301.1172zm7.385-1.4238c.312 0 .687-.0684 1.125-.2051v1.3301c-.445.1992-.992.2988-1.641.2988-.715 0-1.236-.1797-1.564-.5391-.324-.3633-.486-.9062-.486-1.6289v-3.1582h-.856v-.7558l.984-.5977.516-1.3828h1.143v1.3945h1.834v1.3418h-1.834v3.1582c0 .2539.07.4414.211.5625.144.1211.334.1817.568.1817zm5.668-4.0957c-.379 0-.676.1211-.891.3632-.215.2383-.338.5782-.369 1.0196h2.508c-.008-.4414-.123-.7813-.346-1.0196-.222-.2421-.523-.3632-.902-.3632zm.252 5.5195c-1.055 0-1.879-.291-2.473-.8731-.594-.582-.89-1.4062-.89-2.4726 0-1.0977.273-1.9453.82-2.543.551-.6015 1.31-.9023 2.279-.9023.926 0 1.647.2636 2.162.791.516.5273.774 1.2558.774 2.1855v.8672h-4.225c.02.5078.17.9043.451 1.1895.282.2851.676.4277 1.184.4277.394 0 .767-.041 1.119-.123.352-.0821.719-.2129 1.102-.3926v1.3828c-.313.1562-.647.2715-1.002.3457-.356.0781-.789.1172-1.301.1172zm6.699 0c-.769 0-1.375-.2988-1.816-.8965-.438-.5977-.657-1.4258-.657-2.4844 0-1.0742.223-1.9101.668-2.5078.45-.6015 1.067-.9023 1.852-.9023.824 0 1.453.3203 1.887.9609h.058c-.09-.4883-.135-.9238-.135-1.3066v-2.0977h1.793v9.1172h-1.371l-.345-.8496h-.077c-.406.6445-1.025.9668-1.857.9668zm.627-1.4238c.457 0 .791-.1329 1.002-.3985.215-.2656.332-.7168.352-1.3535v-.1934c0-.7031-.11-1.207-.329-1.5117-.214-.3047-.566-.457-1.054-.457-.399 0-.709.1699-.932.5098-.219.3359-.328.8261-.328 1.4707 0 .6445.111 1.1289.334 1.4531.223.3203.541.4805.955.4805zm14.494-2.9766c0 1.4961-.246 2.6035-.738 3.3223-.488.7187-1.242 1.0781-2.262 1.0781-.988 0-1.734-.3711-2.238-1.1133-.5-.7422-.75-1.8379-.75-3.2871 0-1.5117.244-2.625.732-3.3398.489-.7188 1.241-1.0782 2.256-1.0782.988 0 1.735.375 2.238 1.125.508.75.762 1.8477.762 3.293zm-4.189 0c0 1.0508.09 1.8047.269 2.2617.184.4531.49.6797.92.6797.422 0 .727-.2305.914-.6914.188-.4609.281-1.2109.281-2.25 0-1.0508-.095-1.8047-.287-2.2617-.187-.461-.49-.6914-.908-.6914-.426 0-.73.2304-.914.6914-.184.457-.275 1.2109-.275 2.2617zm11.101.9961c0 .6484.106 1.1387.317 1.4707.215.332.562.498 1.043.498.476 0 .818-.164 1.025-.4921.211-.3321.316-.8243.316-1.4766 0-.6484-.105-1.1348-.316-1.459s-.557-.4863-1.037-.4863c-.477 0-.82.1621-1.031.4863-.211.3203-.317.8066-.317 1.459zm4.53 0c0 1.0664-.282 1.9004-.844 2.5019-.563.6016-1.346.9024-2.35.9024-.629 0-1.183-.1367-1.664-.4102-.48-.2773-.849-.6738-1.107-1.1894s-.387-1.1172-.387-1.8047c0-1.0703.279-1.9024.838-2.4961.558-.5938 1.344-.8906 2.355-.8906.629 0 1.184.1367 1.664.4101.481.2735.85.666 1.108 1.1778.258.5117.387 1.1113.387 1.7988zm5.597-1.9219h-1.547v5.209h-1.787v-5.209h-.984v-.8613l.984-.4805v-.4804c0-.7461.184-1.2911.551-1.6348.367-.3438.955-.5156 1.764-.5156.617 0 1.166.0918 1.646.2754l-.457 1.3124c-.359-.1132-.691-.1699-.996-.1699-.254 0-.437.0762-.551.2285-.113.1485-.17.3399-.17.5743v.4101h1.547zm12.215 5.209h-2.074l-1.992-3.2402-1.993 3.2402h-1.945l2.842-4.418-2.66-4.1484h2.004l1.845 3.082 1.811-3.082h1.957l-2.689 4.248z" fill="#fff"/></g></svg>

<svg width="960" height="122" viewBox="0 0 960 122" fill="none" xmlns="http://www.w3.org/2000/svg">
<g clip-path="url(#clip0_314_61643)">
<rect width="960" height="122" fill="#252A2E"/>
<g clip-path="url(#clip1_314_61643)">
<rect x="380.5" y="40.5" width="199" height="15" rx="1.5" stroke="#6A6E79"/>
</g>
<path d="M384.717 71.8223C384.033 71.8223 383.504 72.0801 383.129 72.5957C382.754 73.1074 382.566 73.8223 382.566 74.7402C382.566 76.6504 383.283 77.6055 384.717 77.6055C385.318 77.6055 386.047 77.4551 386.902 77.1543V78.6777C386.199 78.9707 385.414 79.1172 384.547 79.1172C383.301 79.1172 382.348 78.7402 381.688 77.9863C381.027 77.2285 380.697 76.1426 380.697 74.7285C380.697 73.8379 380.859 73.0586 381.184 72.3906C381.508 71.7188 381.973 71.2051 382.578 70.8496C383.188 70.4902 383.9 70.3105 384.717 70.3105C385.549 70.3105 386.385 70.5117 387.225 70.9141L386.639 72.3906C386.318 72.2383 385.996 72.1055 385.672 71.9922C385.348 71.8789 385.029 71.8223 384.717 71.8223ZM390.514 75.7129C390.514 76.3613 390.619 76.8516 390.83 77.1836C391.045 77.5156 391.393 77.6816 391.873 77.6816C392.35 77.6816 392.691 77.5176 392.898 77.1895C393.109 76.8574 393.215 76.3652 393.215 75.7129C393.215 75.0645 393.109 74.5781 392.898 74.2539C392.688 73.9297 392.342 73.7676 391.861 73.7676C391.385 73.7676 391.041 73.9297 390.83 74.2539C390.619 74.5742 390.514 75.0605 390.514 75.7129ZM395.043 75.7129C395.043 76.7793 394.762 77.6133 394.199 78.2148C393.637 78.8164 392.854 79.1172 391.85 79.1172C391.221 79.1172 390.666 78.9805 390.186 78.707C389.705 78.4297 389.336 78.0332 389.078 77.5176C388.82 77.002 388.691 76.4004 388.691 75.7129C388.691 74.6426 388.971 73.8105 389.529 73.2168C390.088 72.623 390.873 72.3262 391.885 72.3262C392.514 72.3262 393.068 72.4629 393.549 72.7363C394.029 73.0098 394.398 73.4023 394.656 73.9141C394.914 74.4258 395.043 75.0254 395.043 75.7129ZM402.885 79H401.098V75.1738C401.098 74.7012 401.018 74.3477 400.857 74.1133C400.701 73.875 400.453 73.7559 400.113 73.7559C399.656 73.7559 399.324 73.9238 399.117 74.2598C398.91 74.5957 398.807 75.1484 398.807 75.918V79H397.02V72.4492H398.385L398.625 73.2871H398.725C398.9 72.9863 399.154 72.752 399.486 72.584C399.818 72.4121 400.199 72.3262 400.629 72.3262C401.609 72.3262 402.273 72.6465 402.621 73.2871H402.779C402.955 72.9824 403.213 72.7461 403.553 72.5781C403.896 72.4102 404.283 72.3262 404.713 72.3262C405.455 72.3262 406.016 72.5176 406.395 72.9004C406.777 73.2793 406.969 73.8887 406.969 74.7285V79H405.176V75.1738C405.176 74.7012 405.096 74.3477 404.936 74.1133C404.779 73.875 404.531 73.7559 404.191 73.7559C403.754 73.7559 403.426 73.9121 403.207 74.2246C402.992 74.5371 402.885 75.0332 402.885 75.7129V79ZM412.906 79.1172C412.137 79.1172 411.533 78.8379 411.096 78.2793H411.002C411.064 78.8262 411.096 79.1426 411.096 79.2285V81.8828H409.309V72.4492H410.762L411.014 73.2988H411.096C411.514 72.6504 412.133 72.3262 412.953 72.3262C413.727 72.3262 414.332 72.625 414.77 73.2227C415.207 73.8203 415.426 74.6504 415.426 75.7129C415.426 76.4121 415.322 77.0195 415.115 77.5352C414.912 78.0508 414.621 78.4434 414.242 78.7129C413.863 78.9824 413.418 79.1172 412.906 79.1172ZM412.379 73.7559C411.938 73.7559 411.615 73.8926 411.412 74.166C411.209 74.4355 411.104 74.8828 411.096 75.5078V75.7012C411.096 76.4043 411.199 76.9082 411.406 77.2129C411.617 77.5176 411.949 77.6699 412.402 77.6699C413.203 77.6699 413.604 77.0098 413.604 75.6895C413.604 75.0449 413.504 74.5625 413.305 74.2422C413.109 73.918 412.801 73.7559 412.379 73.7559ZM419.189 79H417.402V69.8828H419.189V79ZM424.283 73.5977C423.904 73.5977 423.607 73.7188 423.393 73.9609C423.178 74.1992 423.055 74.5391 423.023 74.9805H425.531C425.523 74.5391 425.408 74.1992 425.186 73.9609C424.963 73.7188 424.662 73.5977 424.283 73.5977ZM424.535 79.1172C423.48 79.1172 422.656 78.8262 422.062 78.2441C421.469 77.6621 421.172 76.8379 421.172 75.7715C421.172 74.6738 421.445 73.8262 421.992 73.2285C422.543 72.627 423.303 72.3262 424.271 72.3262C425.197 72.3262 425.918 72.5898 426.434 73.1172C426.949 73.6445 427.207 74.373 427.207 75.3027V76.1699H422.982C423.002 76.6777 423.152 77.0742 423.434 77.3594C423.715 77.6445 424.109 77.7871 424.617 77.7871C425.012 77.7871 425.385 77.7461 425.736 77.6641C426.088 77.582 426.455 77.4512 426.838 77.2715V78.6543C426.525 78.8105 426.191 78.9258 425.836 79C425.48 79.0781 425.047 79.1172 424.535 79.1172ZM431.92 77.6934C432.232 77.6934 432.607 77.625 433.045 77.4883V78.8184C432.6 79.0176 432.053 79.1172 431.404 79.1172C430.689 79.1172 430.168 78.9375 429.84 78.5781C429.516 78.2148 429.354 77.6719 429.354 76.9492V73.791H428.498V73.0352L429.482 72.4375L429.998 71.0547H431.141V72.4492H432.975V73.791H431.141V76.9492C431.141 77.2031 431.211 77.3906 431.352 77.5117C431.496 77.6328 431.686 77.6934 431.92 77.6934ZM437.588 73.5977C437.209 73.5977 436.912 73.7188 436.697 73.9609C436.482 74.1992 436.359 74.5391 436.328 74.9805H438.836C438.828 74.5391 438.713 74.1992 438.49 73.9609C438.268 73.7188 437.967 73.5977 437.588 73.5977ZM437.84 79.1172C436.785 79.1172 435.961 78.8262 435.367 78.2441C434.773 77.6621 434.477 76.8379 434.477 75.7715C434.477 74.6738 434.75 73.8262 435.297 73.2285C435.848 72.627 436.607 72.3262 437.576 72.3262C438.502 72.3262 439.223 72.5898 439.738 73.1172C440.254 73.6445 440.512 74.373 440.512 75.3027V76.1699H436.287C436.307 76.6777 436.457 77.0742 436.738 77.3594C437.02 77.6445 437.414 77.7871 437.922 77.7871C438.316 77.7871 438.689 77.7461 439.041 77.6641C439.393 77.582 439.76 77.4512 440.143 77.2715V78.6543C439.83 78.8105 439.496 78.9258 439.141 79C438.785 79.0781 438.352 79.1172 437.84 79.1172ZM444.539 79.1172C443.77 79.1172 443.164 78.8184 442.723 78.2207C442.285 77.623 442.066 76.7949 442.066 75.7363C442.066 74.6621 442.289 73.8262 442.734 73.2285C443.184 72.627 443.801 72.3262 444.586 72.3262C445.41 72.3262 446.039 72.6465 446.473 73.2871H446.531C446.441 72.7988 446.396 72.3633 446.396 71.9805V69.8828H448.189V79H446.818L446.473 78.1504H446.396C445.99 78.7949 445.371 79.1172 444.539 79.1172ZM445.166 77.6934C445.623 77.6934 445.957 77.5605 446.168 77.2949C446.383 77.0293 446.5 76.5781 446.52 75.9414V75.748C446.52 75.0449 446.41 74.541 446.191 74.2363C445.977 73.9316 445.625 73.7793 445.137 73.7793C444.738 73.7793 444.428 73.9492 444.205 74.2891C443.986 74.625 443.877 75.1152 443.877 75.7598C443.877 76.4043 443.988 76.8887 444.211 77.2129C444.434 77.5332 444.752 77.6934 445.166 77.6934ZM459.66 74.7168C459.66 76.2129 459.414 77.3203 458.922 78.0391C458.434 78.7578 457.68 79.1172 456.66 79.1172C455.672 79.1172 454.926 78.7461 454.422 78.0039C453.922 77.2617 453.672 76.166 453.672 74.7168C453.672 73.2051 453.916 72.0918 454.404 71.377C454.893 70.6582 455.645 70.2988 456.66 70.2988C457.648 70.2988 458.395 70.6738 458.898 71.4238C459.406 72.1738 459.66 73.2715 459.66 74.7168ZM455.471 74.7168C455.471 75.7676 455.561 76.5215 455.74 76.9785C455.924 77.4316 456.23 77.6582 456.66 77.6582C457.082 77.6582 457.387 77.4277 457.574 76.9668C457.762 76.5059 457.855 75.7559 457.855 74.7168C457.855 73.666 457.76 72.9121 457.568 72.4551C457.381 71.9941 457.078 71.7637 456.66 71.7637C456.234 71.7637 455.93 71.9941 455.746 72.4551C455.562 72.9121 455.471 73.666 455.471 74.7168ZM466.572 75.7129C466.572 76.3613 466.678 76.8516 466.889 77.1836C467.104 77.5156 467.451 77.6816 467.932 77.6816C468.408 77.6816 468.75 77.5176 468.957 77.1895C469.168 76.8574 469.273 76.3652 469.273 75.7129C469.273 75.0645 469.168 74.5781 468.957 74.2539C468.746 73.9297 468.4 73.7676 467.92 73.7676C467.443 73.7676 467.1 73.9297 466.889 74.2539C466.678 74.5742 466.572 75.0605 466.572 75.7129ZM471.102 75.7129C471.102 76.7793 470.82 77.6133 470.258 78.2148C469.695 78.8164 468.912 79.1172 467.908 79.1172C467.279 79.1172 466.725 78.9805 466.244 78.707C465.764 78.4297 465.395 78.0332 465.137 77.5176C464.879 77.002 464.75 76.4004 464.75 75.7129C464.75 74.6426 465.029 73.8105 465.588 73.2168C466.146 72.623 466.932 72.3262 467.943 72.3262C468.572 72.3262 469.127 72.4629 469.607 72.7363C470.088 73.0098 470.457 73.4023 470.715 73.9141C470.973 74.4258 471.102 75.0254 471.102 75.7129ZM476.699 73.791H475.152V79H473.365V73.791H472.381V72.9297L473.365 72.4492V71.9688C473.365 71.2227 473.549 70.6777 473.916 70.334C474.283 69.9902 474.871 69.8184 475.68 69.8184C476.297 69.8184 476.846 69.9102 477.326 70.0938L476.869 71.4062C476.51 71.293 476.178 71.2363 475.873 71.2363C475.619 71.2363 475.436 71.3125 475.322 71.4648C475.209 71.6133 475.152 71.8047 475.152 72.0391V72.4492H476.699V73.791ZM488.914 79H486.84L484.848 75.7598L482.855 79H480.91L483.752 74.582L481.092 70.4336H483.096L484.941 73.5156L486.752 70.4336H488.709L486.02 74.6816L488.914 79Z" fill="white"/>
</g>
<defs>
<clipPath id="clip0_314_61643">
<rect width="960" height="122" fill="white"/>
</clipPath>
<clipPath id="clip1_314_61643">
<rect x="380" y="40" width="200" height="16" rx="2" fill="white"/>
</clipPath>
</defs>
</svg>
